!!! OTL: Berkowitz397
!!! Chapter: 1
!!! Section: III
!!! Page: 98
!!! Mode: 
!!! Encoder: DJB
**kern
*staff1
*I"Piano
=1-
*clefC3
*k[f#c#g#d#]
*E:
*M3/4
4r
4r
4b\
=2
4.a#\
8b\
8g#\L
8e\J
=3
4.a#\
8b\
8g#\L
8e\J
=4
8e#\L
8f#\J
4f#\
4f#\
=5
4B/
4r
4cc#\
=6
4.b#\
8cc#\
8a\L
8f#\J
=7
4.b#\
8cc#\
8a\L
8f#\J
=8
8a#\L
8b\J
4b\
4b\
=9
!!linebreak:original
4g#\
4r
4g#\
=10
4.a\
8g#\
8f#\L
8e#\J
=11
4.f#\
8e\
8d#\L
8c#\J
=12
4.d#\
8c#\
8B/L
8A#/J
=13
8B/L
8d#/J
8e\L
8f#\J
8g#\L
8a\J
=14
4.a#\
8b\
8g#\L
8e\J
=15
4.b#\
8cc#\
8a\L
8f#\J
=16
!!linebreak:original
8dd#\L
8cc#\J
8b\L
8a\J
8c#\L
8d#\J
=17
2e\
4r
==
*-
